X:22
T:Cottage adjoining the Fall, The
T:Bothan an easan
R:Slow Air
S:Simon Fraser Collection
N:No.171
O:Scottish
M:3/4
L:1/8
Q:1/4=100
K:G
(G>A)|B2d2 (e/d/)(B/d/)|e2E2G>A|B2d2(eB)|(A2G2)G>A|B2d2(e/d/)(B/d/)|
e2E2G>A|B2 g>e (d<B)|A2[B,2G2]||(3GBd|g2a2b>a|g2B2(de)|(ga)e2(dB)|
A2[B,2G2] (3GBd|g2a2 (b/a/)g/f/|g2B2 (ba)|b2e2 (dB)|A2[B,2G2]||

